assets/symbols/mulberry/outside.svg

<svg height="850.394" viewBox="0 0 850.394 850.394" width="850.394" xmlns="http://www.w3.org/2000/svg"><path d="m745.71 529.83c3.87 15.71 13.45 48.61 13.45 48.61l-15.17 3.819-29.311-64.13-3.5 36.58c1.08 2.89 3.86 11.021 5.681 22.41l-1.04.17h-83.65l-3.51-.39c1.6-13.811 4.21-22.17 4.21-22.17l-2.9-36.95-29.29 64.13-14.09-7.59c2.62-9.09 9.271-32.37 12.36-44.83 5.63-22.771 24.26-60.32 24.26-60.32 4.75-4.74 12.73-10.32 19.54-14.71 6.62-4.28 12.12-7.44 12.41-7.61h.01c4.14 4.37 9.43 6.98 15.2 6.98 5.63 0 10.81-2.5 14.92-6.69l4.21.061s5.62 3.21 12.42 7.6c6.8 4.4 14.79 9.98 19.54 14.72 0 0 18.62 37.55 24.25 60.31z" fill="#abd150"/><path d="m636.59 734.74c0 .14-.01.29-.03.43-1.01-12.59-9.1-114-9.1-137.189 0-7.91.5-15.021 1.2-21.08l3.51.39h83.65l1.04-.17c1 6.2 1.71 13.38 1.71 21.189 0 23.48-7.59 127.29-8.36 137.75l-18.08 5.7-1.68-11.24h-.021l-13.799-121.62-7.02-.04-14.11 122.14h.04l-1.21 9.51z" fill="#797878"/><path d="m710.21 736.06.03-.01c.02 5.15 9.96 9.69 17.72 14.12 4.85 2.76 7.61 7.55 6.18 12.66-1.21 4.24-10.56 6.61-15.29 3.9-8.21-4.681-2.869-3.07-8.97-5.44-14.08-5.51-16.78-2.87-17.75-19.53zm-73.65-.84v-.05c.021-.14.03-.29.03-.43l17.74 5.77c-.99 16.67-3.68 14.03-17.76 19.53-6.11 2.36-.761.77-8.971 5.45-4.739 2.71-14.08.33-15.29-3.91-1.439-5.12 1.33-9.9 6.181-12.66 7.52-4.29 17.44-8.74 18.07-13.7z" fill="#231f20"/><path d="m759.16 578.44c3.729 11.88 4.43 26.529 3.13 31.18-.771 2.74-4.32 6.62-7.66 6.22-3.71-.41-4.55-9.13-6.35-11.92-2.8.59-1.36 4.67-3.431 4.67-1.8-1.79-2.399-6.729-2.399-11.89 0-6.09.84-12.5 1.54-14.44zm-172.57-4.12 14.09 7.59c.7 1.939 1.54 8.34 1.54 14.43 0 5.17-.6 10.11-2.399 11.91-2.061 0-.641-4.1-3.44-4.67-1.79 2.77-2.64 11.52-6.34 11.92-3.34.39-6.9-3.49-7.66-6.23-1.31-4.649-.61-19.279 3.12-31.18-.001 0 .409-1.4 1.089-3.77zm83.78-183.15c13.35 0 24.17 14.03 24.17 31.33 0 10-3.62 18.91-9.25 24.64-4.11 4.19-9.29 6.69-14.92 6.69-5.771 0-11.061-2.61-15.2-6.98h-.01c-5.47-5.739-8.97-14.52-8.97-24.35 0-17.3 10.82-31.33 24.18-31.33z" fill="#ffeec8"/><g fill="#fff"><path d="m395.41 387.71h54.49v48.9h-54.49zm54.49-49.64v49.64h-54.49v-49.64z"/><path d="m395.41 341.07v46.64h-56.03v-49.64h56.03zm0 46.64v48.9h-56.03v-48.9h4.87zm-133.88 176.03v56.42h-55.3v-56.42zm0-42.13v42.13h-55.3v-42.13z"/><path d="m206.23 614.89v5.27h-55.22v-98.55h55.22v42.13zm-55.22-227.18h56.03v48.9h-56.03z"/><path d="m207.04 387.71h54.49v48.9h-54.49zm54.49-49.64v49.64h-54.49v-49.64z"/><path d="m207.04 341.07v46.64h-56.03v-49.64h56.03z"/></g><path d="m484.1 276.69h24.98v413.43h-59.18v-179.03h-110.52v179.03h-237.08v-413.43zm-34.2 159.92v-98.54h-110.52v98.54zm-188.37 183.55v-98.55h-110.52v98.55zm0-183.55v-98.54h-110.52v98.54z" fill="#fff5b4"/><path d="m339.38 511.09h110.521v179.03h-110.521z" fill="#394ea1"/><path d="m198.65 173.06 3.58 4.34-35.52 29.27h-20.03v-84.25h51.97z" fill="#bd2025"/><path d="m509.1 261.06-25 15.63h-377.37l-8.4-13.66 68.38-56.36 35.52-29.27 102.55-84.52z" fill="#bd2025"/><g fill="none" stroke="#231f20"><path d="m339.38 690.12h-237.08v-413.43h406.78v413.43h-59.18" stroke-width="21"/><path d="m261.53 387.71v48.9h-110.52v-98.54h110.52zm0 176.03v56.42h-110.52v-98.55h110.52zm77.85-52.65h110.521v179.03h-110.521zm110.52-123.38v48.9h-110.52v-98.54h110.52z" stroke-width="21"/><path d="m537.81 284.7-28.71-23.64-204.32-168.18-102.55 84.52-35.52 29.27-68.38 56.36-24.42 20.12" stroke-width="28"/><path d="m166.71 206.67h-20.03v-84.25h51.97v50.64" stroke-width="21"/><g stroke-width="14"><path d="m206.23 523.11v91.78m0-51.15h55.3m-110.52-176.03h110.52m-54.49-46.64v95.54m188.37-95.54v95.54m-51.16-48.9h105.65m205.26 59.14c-5.47-5.739-8.97-14.52-8.97-24.35 0-17.3 10.819-31.33 24.18-31.33 13.35 0 24.17 14.03 24.17 31.33 0 10-3.62 18.91-9.25 24.64-4.11 4.19-9.29 6.69-14.92 6.69-5.771 0-11.061-2.61-15.2-6.98"/><path d="m585.5 578.09s.41-1.399 1.09-3.77c2.62-9.09 9.271-32.37 12.36-44.83 5.63-22.771 24.26-60.32 24.26-60.32 4.75-4.74 12.73-10.32 19.54-14.71 6.62-4.28 12.12-7.44 12.41-7.61h.01m-18.61 288.32c-1.01-12.59-9.1-114-9.1-137.189 0-7.91.5-15.021 1.2-21.08 1.6-13.811 4.21-22.17 4.21-22.17l-2.9-36.95-29.29 64.13c.7 1.939 1.54 8.34 1.54 14.43 0 5.17-.6 10.11-2.399 11.91-2.061 0-.641-4.1-3.44-4.67-1.79 2.77-2.64 11.52-6.34 11.92-3.34.39-6.9-3.49-7.66-6.23-1.31-4.649-.61-19.279 3.12-31.18m51.159 158.359s-.03-.431-.101-1.23m122.601-156.78s-9.58-32.9-13.45-48.61c-5.63-22.76-24.25-60.311-24.25-60.311-4.75-4.739-12.74-10.319-19.54-14.72-6.8-4.39-12.42-7.6-12.42-7.6"/><path d="m711.05 556.04.13-1.33 3.5-36.58 29.311 64.13c-.7 1.94-1.54 8.351-1.54 14.44 0 5.16.6 10.1 2.399 11.89 2.07 0 .631-4.08 3.431-4.67 1.8 2.79 2.64 11.51 6.35 11.92 3.34.4 6.89-3.479 7.66-6.22 1.3-4.65.6-19.3-3.13-31.18"/><path d="m710.15 736.91.06-.851c.771-10.46 8.36-114.27 8.36-137.75 0-7.81-.71-14.989-1.71-21.189-1.82-11.39-4.601-19.521-5.681-22.41-.279-.76-.449-1.16-.449-1.16m-55.15 177.11-.04.34-1.21 9.51c-.99 16.67-3.68 14.03-17.76 19.53-6.11 2.36-.761.77-8.971 5.45-4.739 2.71-14.08.33-15.29-3.91-1.439-5.12 1.33-9.9 6.181-12.66 7.52-4.29 17.439-8.74 18.069-13.7v-.05c.021-.14.03-.29.03-.43"/><path d="m690.45 730.52 1.68 11.24c.97 16.66 3.67 14.021 17.75 19.53 6.101 2.37.76.76 8.97 5.44 4.73 2.71 14.08.34 15.29-3.9 1.431-5.11-1.33-9.9-6.18-12.66-7.76-4.43-17.7-8.97-17.72-14.12m-19.72-4.75-.09-.78-13.8-121.62-7.02-.04-14.11 122.14m-23.33-153.71h83.65"/></g><path d="m586 574 .59.32 14.09 7.59m143.31.35 15.17-3.82m-122.57 156.3 17.74 5.77m37.8 1.25 18.08-5.7.03-.01" stroke-width="7"/></g><path d="m0 0h850.394v850.394h-850.394z" fill="none"/></svg>

<svg xmlns="http://www.w3.org/2000/svg" width="850.394" height="850.394" viewBox="0 0 850.394 850.394" overflow="visible"><path d="M745.71 529.83c3.87 15.71 13.45 48.61 13.45 48.61l-15.17 3.819-29.311-64.13-3.5 36.58c1.08 2.89 3.86 11.021 5.681 22.41l-1.04.17h-83.65l-3.51-.39c1.6-13.811 4.21-22.17 4.21-22.17l-2.9-36.95-29.29 64.13-14.09-7.59c2.62-9.09 9.271-32.37 12.36-44.83 5.63-22.771 24.26-60.32 24.26-60.32 4.75-4.74 12.73-10.32 19.54-14.71 6.62-4.28 12.12-7.44 12.41-7.61h.01c4.14 4.37 9.43 6.98 15.2 6.98 5.63 0 10.81-2.5 14.92-6.69l4.21.061s5.62 3.21 12.42 7.6c6.8 4.4 14.79 9.98 19.54 14.72 0 0 18.62 37.55 24.25 60.31z" fill="#abd150"/><path d="M636.59 734.74c0 .14-.01.29-.03.43-1.01-12.59-9.1-114-9.1-137.189 0-7.91.5-15.021 1.2-21.08l3.51.39h83.65l1.04-.17c1 6.2 1.71 13.38 1.71 21.189 0 23.48-7.59 127.29-8.36 137.75l-18.08 5.7-1.68-11.24h-.021L676.63 608.9l-7.02-.04L655.5 731h.04l-1.21 9.51-17.74-5.77z" fill="#797878"/><path d="M710.21 736.06l.03-.01c.02 5.15 9.96 9.69 17.72 14.12 4.85 2.76 7.61 7.55 6.18 12.66-1.21 4.24-10.56 6.61-15.29 3.9-8.21-4.681-2.869-3.07-8.97-5.44-14.08-5.51-16.78-2.87-17.75-19.53l18.08-5.7zM636.56 735.22v-.05c.021-.14.03-.29.03-.43l17.74 5.77c-.99 16.67-3.68 14.03-17.76 19.53-6.11 2.36-.761.77-8.971 5.45-4.739 2.71-14.08.33-15.29-3.91-1.439-5.12 1.33-9.9 6.181-12.66 7.52-4.29 17.44-8.74 18.07-13.7z" fill="#231f20"/><path d="M759.16 578.44c3.729 11.88 4.43 26.529 3.13 31.18-.771 2.74-4.32 6.62-7.66 6.22-3.71-.41-4.55-9.13-6.35-11.92-2.8.59-1.36 4.67-3.431 4.67-1.8-1.79-2.399-6.729-2.399-11.89 0-6.09.84-12.5 1.54-14.44l15.17-3.82zM586.59 574.32l14.09 7.59c.7 1.939 1.54 8.34 1.54 14.43 0 5.17-.6 10.11-2.399 11.91-2.061 0-.641-4.1-3.44-4.67-1.79 2.77-2.64 11.52-6.34 11.92-3.34.39-6.9-3.49-7.66-6.23-1.31-4.649-.61-19.279 3.12-31.18-.001 0 .409-1.4 1.089-3.77zM670.37 391.17c13.35 0 24.17 14.03 24.17 31.33 0 10-3.62 18.91-9.25 24.64-4.11 4.19-9.29 6.69-14.92 6.69-5.771 0-11.061-2.61-15.2-6.98h-.01c-5.47-5.739-8.97-14.52-8.97-24.35 0-17.3 10.82-31.33 24.18-31.33z" fill="#ffeec8"/><path fill="#fff" d="M395.41 387.71h54.49v48.9h-54.49zM449.9 338.07v49.64h-54.49v-49.64z"/><path fill="#fff" d="M395.41 341.07v46.64H339.38v-49.64h56.03zM395.41 387.71v48.9h-56.03v-48.9h4.87zM261.53 563.74v56.42h-55.3v-56.42zM261.53 521.61v42.13h-55.3v-42.13z"/><path fill="#fff" d="M206.23 614.89v5.27h-55.22v-98.55h55.22v42.13zM151.01 387.71h56.03v48.9h-56.03z"/><path fill="#fff" d="M207.04 387.71h54.49v48.9h-54.49zM261.53 338.07v49.64h-54.49v-49.64z"/><path fill="#fff" d="M207.04 341.07v46.64h-56.03v-49.64h56.03z"/><path d="M484.1 276.69h24.98v413.43H449.9V511.09H339.38v179.03H102.3V276.69h381.8zm-34.2 159.92V338.07H339.38V436.61H449.9zM261.53 620.16V521.61H151.01v98.55h110.52zm0-183.55V338.07H151.01V436.61H261.53z" fill="#fff5b4"/><path fill="#394ea1" d="M339.38 511.09h110.521v179.03H339.38z"/><path fill="#bd2025" d="M198.65 173.06l3.58 4.34-35.52 29.27h-20.03v-84.25h51.97z"/><path fill="#bd2025" d="M509.1 261.06l-25 15.63H106.73l-8.4-13.66 68.38-56.36 35.52-29.27 102.55-84.52z"/><g fill="none" stroke="#231f20"><path stroke-width="21" d="M339.38 690.12H102.3V276.69H509.08v413.43H449.9"/><path stroke-width="21" d="M261.53 387.71v48.9H151.01V338.07H261.53zM261.53 563.74v56.42H151.01v-98.55h110.52zM339.38 511.09h110.521v179.03H339.38zM449.9 387.71v48.9H339.38V338.07H449.9z"/><path stroke-width="28" d="M537.81 284.7l-28.71-23.64L304.78 92.88 202.23 177.4l-35.52 29.27-68.38 56.36-24.42 20.12"/><path stroke-width="21" d="M166.71 206.67h-20.03v-84.25h51.97v50.64"/><path stroke-width="14" d="M206.23 523.11v91.78M206.23 563.74h55.3M151.01 387.71H261.53M207.04 341.07V436.61M395.41 341.07V436.61M344.25 387.71H449.9M655.16 446.85c-5.47-5.739-8.97-14.52-8.97-24.35 0-17.3 10.819-31.33 24.18-31.33 13.35 0 24.17 14.03 24.17 31.33 0 10-3.62 18.91-9.25 24.64-4.11 4.19-9.29 6.69-14.92 6.69-5.771 0-11.061-2.61-15.2-6.98"/><path d="M585.5 578.09s.41-1.399 1.09-3.77c2.62-9.09 9.271-32.37 12.36-44.83 5.63-22.771 24.26-60.32 24.26-60.32 4.75-4.74 12.73-10.32 19.54-14.71 6.62-4.28 12.12-7.44 12.41-7.61h.01M636.56 735.17c-1.01-12.59-9.1-114-9.1-137.189 0-7.91.5-15.021 1.2-21.08 1.6-13.811 4.21-22.17 4.21-22.17l-2.9-36.95-29.29 64.13c.7 1.939 1.54 8.34 1.54 14.43 0 5.17-.6 10.11-2.399 11.91-2.061 0-.641-4.1-3.44-4.67-1.79 2.77-2.64 11.52-6.34 11.92-3.34.39-6.9-3.49-7.66-6.23-1.31-4.649-.61-19.279 3.12-31.18M636.66 736.45s-.03-.431-.101-1.23M759.16 578.44s-9.58-32.9-13.45-48.61c-5.63-22.76-24.25-60.311-24.25-60.311-4.75-4.739-12.74-10.319-19.54-14.72-6.8-4.39-12.42-7.6-12.42-7.6" stroke-width="14"/><path d="M711.05 556.04l.13-1.33 3.5-36.58 29.311 64.13c-.7 1.94-1.54 8.351-1.54 14.44 0 5.16.6 10.1 2.399 11.89 2.07 0 .631-4.08 3.431-4.67 1.8 2.79 2.64 11.51 6.35 11.92 3.34.4 6.89-3.479 7.66-6.22 1.3-4.65.6-19.3-3.13-31.18" stroke-width="14"/><path d="M710.15 736.91l.06-.851c.771-10.46 8.36-114.27 8.36-137.75 0-7.81-.71-14.989-1.71-21.189-1.82-11.39-4.601-19.521-5.681-22.41-.279-.76-.449-1.16-.449-1.16M655.58 730.66l-.04.34-1.21 9.51c-.99 16.67-3.68 14.03-17.76 19.53-6.11 2.36-.761.77-8.971 5.45-4.739 2.71-14.08.33-15.29-3.91-1.439-5.12 1.33-9.9 6.181-12.66 7.52-4.29 17.439-8.74 18.069-13.7v-.05c.021-.14.03-.29.03-.43" stroke-width="14"/><path d="M690.45 730.52l1.68 11.24c.97 16.66 3.67 14.021 17.75 19.53 6.101 2.37.76.76 8.97 5.44 4.73 2.71 14.08.34 15.29-3.9 1.431-5.11-1.33-9.9-6.18-12.66-7.76-4.43-17.7-8.97-17.72-14.12M690.52 731.3l-.09-.78-13.8-121.62-7.02-.04L655.5 731M632.17 577.29h83.65" stroke-width="14"/><path stroke-width="7" d="M586 574l.59.32 14.09 7.59M743.99 582.26l15.17-3.82M636.59 734.74l17.74 5.77M692.13 741.76l18.08-5.7.03-.01"/></g><path fill="none" d="M0 0h850.394v850.394H0z"/></svg>
